!!!COM: Krebs, Johann Ludwig
!!!OTL: Fuga
!!!OMV: 2
!!!SCT: I.2
!!!SCA: Johann Ludwig Krebs, Sämtliche Orgelwerke. Herausgegeven von Gerhard Weinberger.
**kern	**kern	**kern	**kern
*MM76	*MM76	*MM76	*MM76
*k[b-e-a-]	*k[b-e-a-]	*k[b-e-a-]	*k[b-e-a-]
*M4/4	*M4/4	*M4/4	*M4/4
*tb64	*tb64	*tb64	*tb64
4r	4r	8r	4r
.	.	8g	.
=1	=1	=1	=1
1r	1r	16f	1r
.	.	16e-	.
.	.	16d	.
.	.	16c	.
.	.	8g	.
.	.	8B	.
.	.	4c	.
.	.	8r	.
.	.	8g	.
=2	=2	=2	=2
1r	1r	16f	1r
.	.	16e-	.
.	.	16d	.
.	.	16c	.
.	.	8g	.
.	.	8B	.
.	.	8c	.
.	.	16d	.
.	.	16e-	.
.	.	8f	.
.	.	16g	.
.	.	16a-	.
=3	=3	=3	=3
1r	1r	8d	2r
.	.	8a-	.
.	.	8g	.
.	.	8f	.
.	.	8e-	4r
.	.	16d	.
.	.	16c	.
.	.	8d	8r
.	.	16e	8cc
.	.	16f#	.
=4	=4	=4	=4
1r	1r	8g	16cc
.	.	.	16b-
.	.	8e-	16a
.	.	.	16g
.	.	8d	8dd
.	.	16d	8f#
.	.	16c	.
.	.	8B-	4g
.	.	16A	.
.	.	16G	.
.	.	8d	8r
.	.	8F#	8dd
=5	=5	=5	=5
1r	1r	4G	16cc
.	.	.	16b-
.	.	.	16a
.	.	.	16g
.	.	8r	8dd
.	.	8c	8f#
.	.	8B-	8g
.	.	16c	16a
.	.	16d	16b-
.	.	8e-	8cc
.	.	16d	16dd
.	.	16c	16ee-
=6	=6	=6	=6
1r	2r	4d	8a
.	.	.	8ee-
.	.	8e	8dd
.	.	8f#	8cc
.	4r	8g	8b
.	.	16f	4cc
.	.	16e-	.
.	8r	4d	.
.	8G	.	8b
=7	=7	=7	=7
1r	8E-	8c	4cc
.	16D	16d	.
.	16C	16e-	.
.	8G	8d	8dd
.	8BB	8f	16cc
.	.	.	16dd
.	4C	8e-T	4cc
.	.	16d	.
.	.	16c	.
.	8r	8g	8r
.	8G	8B	8g
=8	=8	=8	=8
1r	8E-	8c	8g
.	16D	8e-	8cc
.	16C	.	.
.	8G	8.d	16b
.	.	.	16cc
.	8BB	.	8dd
.	.	16f	.
.	8C	8e-	[2cc
.	16D	16f	.
.	16E-	16g	.
.	8F	8a-	.
.	16G	8g	.
.	16A-	.	.
=9	=9	=9	=9
2r	8D	8f	8cc]
.	8A-	8d	8b
.	8G	8e-	8cc
.	8F	8f	[8dd
4r	8E-	4.g	8dd]
.	8D	.	16cc
.	.	.	16b
8r	8E-	.	8cc
8C	8A	8f#	16dd
.	.	.	16ee-
=10	=10	=10	=10
8BB-T	16G	8d	8dd
.	16F#	.	.
16AA	8G	8c#	8b-
16GG	.	.	.
8D	16F#	8.d	16a
.	16G	.	16b-
8FF#	8A	.	8cc
.	.	16d	.
4GG	8G	8d	16cc
.	.	.	16b-
.	8A	8c	16a
.	.	.	16g
8r	16B-	16d	8dd
.	16c	16e	.
8D	8d	8f#	8a
=11	=11	=11	=11
8BB-T	8d	4.g	8b-
16AA	8c	.	16cc
16GG	.	.	16b-
8D	8d	.	16a
.	.	.	16b-
8FF#	8A	8f#	8cc
8GG	4G	4d	8b-T
16AA	.	.	16a
16BB-	.	.	16g
8C	[4A	[4c	16ee-
.	.	.	16dd
16D	.	.	8cc
16E-	.	.	.
=12	=12	=12	=12
8AA	8A]	8c]	8ff#
8E-	8c	8f#	8a
8D	8d	8g	8b-
8C	8e-	8a	8cc
8BB-	16d	4.g	8dd
.	16c	.	.
8GG	16d	.	8gg
.	16e-	.	.
4D	8d	.	8b-
.	8c	8f#	8a
=13	=13	=13	=13
4.E-	8B-	4g	8g
.	8B	.	8gg
.	8c	8a	4ff
8D	8d	8b	.
4C	8e-	4.cc	4ee-
.	8f	.	.
4G	8g	.	4dd
.	8d	8b	.
=14	=14	=14	=14
4C	4e-	4g	4cc
4r	4r	8r	4b
.	.	8g	.
2r	2r	16f	4cc
.	.	16e-	.
.	.	16d	.
.	.	16c	.
.	.	8g	8dd
.	.	8B	8gg
=15	=15	=15	=15
1r	1r	4c	16ff
.	.	.	16ee-
.	.	.	16dd
.	.	.	16cc
.	.	8r	8gg
.	.	8g	8b
.	.	16f	4cc
.	.	16e-	.
.	.	16d	.
.	.	16c	.
.	.	8g	4dd
.	.	8B	.
=16	=16	=16	=16
1r	1r	8c	4ee-
.	.	16d	.
.	.	16e-	.
.	.	8f	8dd
.	.	16g	8cc
.	.	16a-	.
.	.	8d	8b
.	.	8a-	8ff
.	.	8g	8ee-
.	.	8f	8dd
=17	=17	=17	=17
1r	1r	8e	16gg
.	.	.	16ff
.	.	8g	16ee
.	.	.	16dd
.	.	8e-	16cc
.	.	.	16bb-
.	.	8c	16aa-
.	.	.	16gg
.	.	[4f	8.aa-t
.	.	.	16gg
.	.	16f]	[4ff
.	.	16e-	.
.	.	16d	.
.	.	16c	.
=18	=18	=18	=18
1r	1r	8d	16ff]
.	.	.	16ee-
.	.	8f	16dd
.	.	.	16cc
.	.	8d	16b-
.	.	.	16aa-
.	.	8B-	16gg
.	.	.	16ff
.	.	[4e-	8.ggt
.	.	.	16ff
.	.	16e-]	[4ee-
.	.	16d	.
.	.	16c	.
.	.	16B-	.
=19	=19	=19	=19
1r	1r	8c	16ee-]
.	.	.	16dd
.	.	8e-	16cc
.	.	.	16b-
.	.	8c	16a-
.	.	.	16gg
.	.	8A-	16ff
.	.	.	16ee-
.	.	[4d	8.ffT
.	.	.	16ee-
.	.	16d]	[4dd
.	.	16c	.
.	.	16B	.
.	.	16A	.
=20	=20	=20	=20
1r	1r	8B	16dd]
.	.	.	16cc
.	.	8d	16b
.	.	.	16a
.	.	8B	16g
.	.	.	16ff
.	.	8G	16ee-
.	.	.	16dd
.	.	[4c	8.ee-T
.	.	.	16dd
.	.	16c]	[4cc
.	.	16B-	.
.	.	16A	.
.	.	16G	.
=21	=21	=21	=21
1r	1r	8A-	16cc]
.	.	.	16b-
.	.	8c	16a-
.	.	.	16g
.	.	8A-	16f
.	.	.	16ee-
.	.	8F	16dd
.	.	.	16cc
.	.	4B-	16dd
.	.	.	16cc
.	.	.	16b-
.	.	.	16a-
.	.	4B	16g
.	.	.	16ff
.	.	.	16ee-
.	.	.	16dd
=22	=22	=22	=22
1r	2r	8c	16ee-
.	.	.	16dd
.	.	8d	16cc
.	.	.	16b
.	.	8e-	16cc
.	.	.	16b-
.	.	8c	16a
.	.	.	16g
.	4r	8c	16f#
.	.	.	16ee-
.	.	16B-	16dd
.	.	16c	16cc
.	8r	16d	8b-
.	.	8g	.
.	8d	.	8a
.	.	16f#	.
=23	=23	=23	=23
1r	8B-	8g	8g
.	16A	8b-	8gg
.	16G	.	.
.	8d	8a	16ff#
.	.	.	16gg
.	8F#	8dd	8aa
.	4G	8b-	4gg
.	.	16a	.
.	.	16g	.
.	8r	8dd	8r
.	8d	8f#	8a
=24	=24	=24	=24
1r	8B-T	8g	8dd
.	16A	8e	16cc
.	16G	.	16b-
.	8d	8f#	16a
.	.	.	16b-
.	8F#	[8a	8cc
.	8G	4a]	4b-
.	16A	.	.
.	16B-	.	.
.	8c	4g	[4ee-
.	16d	.	.
.	16e-	.	.
=25	=25	=25	=25
1r	8F#	8a	8ee-]
.	8e-	8f#	8a
.	8d	8g	8b-
.	8c	8a	8cc
.	8B-	8g	8dd
.	8F#	8a	8ee-
.	8G	8b-	8dd
.	8A	[8a	8cc
=26	=26	=26	=26
4r	8G	8a]	8b-
.	8F	8a-	8b
8r	8E-	8g	8cc
8G	8D	8f	8dd
8E-	8C	8g	4ee-
16D	8F#	8a	.
16C	.	.	.
8G	[4G	8b	8dd
8BB	.	8dd	8gg
=27	=27	=27	=27
4C	4G]	4cc	16ff
.	.	.	16ee-
.	.	.	16dd
.	.	.	16cc
8r	8r	8r	8gg
8G	8G	8d	8b
8E-	8G	8c	8cc
16D	8A	8f#	8ee-
16C	.	.	.
8G	8B	[4g	8dd
8BB	8d	.	16gg
.	.	.	16ff
=28	=28	=28	=28
8C	8c	8g]	8ee-
16D	8G	8e-	8cc
16E-	.	.	.
8F	8F	4c	16b-
.	.	.	16g
8A-	[8c	.	16a-
.	.	.	16f
8D	8c]	8f	8ff
8A-	8B	8f	8dd
8G	8c	8g	8ee-
8F	8d	8a-	8ff
=29	=29	=29	=29
8E-	8c	8g	8gg
8A-	8e-	4cc	16ff
.	.	.	16ee-
8F	8d	.	8ff
8G	8g	8b	16ee-
.	.	.	16dd
8C	8g	8cc	16ee-
.	.	.	16dd
8D	8F	8d	16cc
.	.	.	16b
8E-	8G	8c	16cc
.	.	.	16dd
8C	8A	16g	8ee-
.	.	16f#	.
=30	=30	=30	=30
4GG	16B	4g	16dd
.	16c	.	16ee-
.	16B	.	16dd
.	16c	.	16ee-
8r	16d	8r	16ff
.	16c	.	16ee-
8G	16d	8g	16ff
.	16c	.	16dd
8E-	8c	8g	16ee-
.	.	.	16ff
8C	8e-	8cc	16gg
.	.	.	16aa-
8G	8d	8b	16gg
.	.	.	16ff
8BB	8G	8g	16ee-
.	.	.	16dd
=31	=31	=31	=31
4C	8E-	4.g	16cc
.	.	.	16dd
.	8C	.	16ee-
.	.	.	16cc
4r	8G	.	16dd
.	.	.	16ee-
.	8BB	8g	16ff
.	.	.	16dd
4r	8C	8.g	16ee-
.	.	.	16dd
.	8D	.	16cc
.	.	16f	16b
8r	8E	8g	16cc
.	.	.	16b-
8c	8C	8e	16a-
.	.	.	16g
=32	=32	=32	=32
8A-	8F	8f	16a-
.	.	.	16b-
8F	8c	8a-	16cc
.	.	.	16dd-
8c	8E	8g	16cc
.	.	.	16b-
8E	8c	8e	16a-
.	.	.	16g
4F	8A-	8c	8a-
.	8F	8a-	8ff
4r	8c	8g	16ee
.	.	.	16ff
.	8E	16cc	[8gg
.	.	16b-	.
=33	=33	=33	=33
4r	8F	8a-	8gg]
.	8G	8b-	16ff
.	.	.	16ee
8r	8A-	8cc	16ff
.	.	.	16ee-
8F	8A	8a	16dd
.	.	.	16cc
8D	8B-	8f	16dd
.	.	.	16ee-
8BB-	8F	8dd	16ff
.	.	.	16gg
8F	8A	8cc	16ff
.	.	.	16ee-
8AA	8F	8a	16dd
.	.	.	16cc
=34	=34	=34	=34
4BB-	8D	8f	8.dd
.	8BB-	8b-	.
.	.	.	16dd
4r	8F	16a	8cc
.	.	16b-	.
.	8AA	8cc	16g
.	.	.	16e-
4r	8BB-	8.b-	8d
.	8C	.	8e-
.	.	16a	.
8r	8D	8b-	16f
.	.	.	16e-
8B-	8BB-	8f	16d
.	.	.	16c
=35	=35	=35	=35
8G	8E-	16g	8B-
.	.	16a-	.
8E-	8G	16b-	8e-
.	.	16cc	.
8B-	8F	16b-	16d
.	.	16a-	16e-
8D	8B-	16g	8f
.	.	16f	.
4E-	8G	8g	8e-
.	8E-	8ee-	8g
4r	8B-	8dd	16f
.	.	.	16g
.	8D	[8ff	8a-
=36	=36	=36	=36
4r	8E-	8ff]	[4g
.	8F	16ee-	.
.	.	16dd	.
8r	16G	8ee-	16g]
.	16F	.	16a-
8E-	8G	8dd-	8b-
8C	8A-	8cc	8e-
8AA-	8c	8ee-	8a-
8E-	16B-	8b-	8g
.	16c	.	.
8GG	8d-	8ee-	8b-
=37	=37	=37	=37
4AA-	8c	8ee-	8.aa-
.	8A-	8cc	.
.	.	.	16aa-
4r	8e-	16b-	8gg
.	.	16cc	.
.	8G	8dd-	8bb-
4r	8A-	8cc-	8aa-
.	8B-	16b-	16gg
.	.	16a-	16ff
8r	8c	8g	16ee
.	.	.	16ff
8C	8e	8b-	8gg
=38	=38	=38	=38
8AA-	16f	[2cc	4ff
.	16e	.	.
8FF	16f	.	.
.	16a-	.	.
8C	16g	.	8ee
.	16f	.	.
8EE	16g	.	8gg
.	16b-	.	.
4FF	4a-	4cc]	16ff
.	.	.	16gg
.	.	.	16ff
.	.	.	16ee-
8r	8r	8r	16dd
.	.	.	16ee-
8F	8f	[8a-	16dd
.	.	.	16cc
=39	=39	=39	=39
4G	4d	16a-]	4b
.	.	16a-	.
.	.	16g	.
.	.	16f	.
8r	8r	16g	8r
.	.	16f	.
8GG	8g	16e-	8b
.	.	16d	.
8AA-	4f	8c	8.cc
8FF	.	8a-	.
.	.	.	16dd
8GG	4d	8g	8.bT
8GG	.	8f	.
.	.	.	16cc
=40	=40	=40	=40
4CC	8c	8e-	24cc
.	.	.	24g
.	.	.	24e-
.	8f	8r	24a-
.	.	.	24f
.	.	.	24d
4r	8e-	4r	24g
.	.	.	24e-
.	.	.	24c
.	8d	.	24f
.	.	.	24d
.	.	.	24B
2r	8c	2r	16e-
.	.	.	16c
.	8A-	.	16f
.	.	.	16d
.	8G	.	16e-
.	.	.	16c
.	8F	.	16d
.	.	.	16B
=41	=41	=41	=41
1r	8E-	1r	24c
.	.	.	24G
.	.	.	24E-
.	8F	.	24A-
.	.	.	24F
.	.	.	24D
.	8E-	.	24G
.	.	.	24E-
.	.	.	24C
.	8D	.	24F
.	.	.	24D
.	.	.	24BB
.	8C	.	16E-
.	.	.	16C
.	8D	.	16F
.	.	.	16D
.	8E-	.	16G
.	.	.	16E-
.	8F	.	16A
.	.	.	16F
=42	=42	=42	=42
1r	8G	1r	16B
.	.	.	16G
.	8A	.	16c
.	.	.	16A
.	8B	.	16d
.	.	.	16B
.	8c	.	16e-
.	.	.	16c
.	8d	.	16f
.	.	.	16e-
.	8c	.	[8f
.	8B	.	16f]
.	.	.	16g
.	8G	.	16d
.	.	.	16f
=43	=43	=43	=43
1r	8c	1r	16e-
.	.	.	16d
.	8B-	.	[8e-
.	8A-	.	16e-]
.	.	.	16f
.	8F	.	16c
.	.	.	16e-
.	8B-	.	16d
.	.	.	16c
.	8A-	.	[8d
.	8G	.	16d]
.	.	.	16e-
.	8E-	.	16B-
.	.	.	16d
=44	=44	=44	=44
1r	8A-	1r	16c
.	.	.	16B
.	8G	.	[8c
.	8F	.	16c]
.	.	.	16c
.	8E-	.	16d
.	.	.	16e-
.	8D	.	16f
.	.	.	16g
.	8E-	.	16a-
.	.	.	16f
.	8F	.	16d
.	.	.	16f
.	8F#	.	16B
.	.	.	16c
=45	=45	=45	=45
1r	8G	1r	8B
.	16F	.	8g
.	16E-	.	.
.	8F	.	16f
.	.	.	16e-
.	8G	.	16d
.	.	.	16e-
.	16F	.	8c
.	16E-T	.	.
.	16D	.	8cc
.	16C	.	.
.	8G	.	16b
.	.	.	16a
.	8BB	.	16g
.	.	.	16f
=46	=46	=46	=46
1r	4C	1r	16f
.	.	.	16e-T
.	.	.	16d
.	.	.	16c
.	8r	.	8g
.	8G	.	8B
.	16F	.	16c
.	16E-	.	16B
.	16D	.	16c
.	16C	.	16e-
.	8G	.	16d
.	.	.	16c
.	8BB	.	16d
.	.	.	16f
=47	=47	=47	=47
1r	8C	1r	16e-
.	.	.	16d
.	16D	.	16e-
.	16E-	.	16c
.	8F	.	16a-
.	.	.	16g
.	16G	.	16a-
.	16A-	.	16c
.	8D	.	16B
.	.	.	16c
.	8A-	.	16d
.	.	.	16B
.	8G	.	16c
.	.	.	16d
.	8F	.	16e-
.	.	.	16c
=48	=48	=48	=48
1r	8E-	1r	8g
.	8C	.	16a-
.	.	.	16g
.	8F	.	16f
.	.	.	16e-
.	8F#	.	16d
.	.	.	16c
.	8G	.	8B
.	16F	.	8c
.	16E-	.	.
.	8D	.	8fT
.	8G	.	16e-
.	.	.	16d
=49	=49	=49	=49
4r	8E-	1r	8c
.	16D	.	16d
.	16C	.	16e-
8r	8G	.	16d
.	.	.	16e
8C	8A	.	16f#
.	.	.	16d
8BB-	16G	.	8g
.	16F#	.	.
16AA	16G	.	16f#
16GG	16B-	.	16e
8D	16A	.	8f#
.	16G	.	.
8FF#	16A	.	8a
.	16c	.	.
=50	=50	=50	=50
4GG	8B-T	1r	4g
.	16A	.	.
.	16G	.	.
8r	8d	.	8r
8D	8F#	.	8a
8BB-	8G	.	8dd
16AA	16A	.	16cc
16GG	16B-	.	16b-
8D	8c	.	8a
8FF#	16d	.	16b-
.	16e-	.	16cc
=51	=51	=51	=51
8GG	8d	1r	8b-
16AA	8B-	.	16a
16BB-	.	.	16g
8C	8G	.	8ee-
16D	16F#	.	16dd
16E-	16G	.	16cc
8AA	8A	.	8ff#
8E-	8F#	.	8a
8D	8G	.	8b-
8C	8A	.	8cc
=52	=52	=52	=52
8BB-	8G	2r	8dd
8GG	8B-	.	16ee-
.	.	.	16dd
8D	8A	.	16cc
.	.	.	16b-
8DD	8c	.	16a
.	.	.	16b-
8GG	8B-	4g	4r
8F	16A	.	.
.	16G	.	.
8E-	8A	8r	8r
8D	8B	8f	8gg
=53	=53	=53	=53
8C	4c	4g	16ff
.	.	.	16ee-
8G	.	.	16dd
.	.	.	16cc
8BB	8r	8r	8gg
8G	8g	8d	8b
8E-T	8c	4e-	4cc
16D	8g	.	.
16C	.	.	.
8G	8B	8r	8r
8BB	8d	8g	8gg
=54	=54	=54	=54
8C	4c	4g	16ff
.	.	.	16ee-T
8G	.	.	16dd
.	.	.	16cc
8BB	8r	8r	8gg
8G	8d	8g	8b
8E-	4e-	4g	8cc
8C	.	.	16dd
.	.	.	16ee-
8A-	[4c	4f	8ff
8G	.	.	16gg
.	.	.	16aa-
=55	=55	=55	=55
4F	4c]	4a-	8dd
.	.	.	8aa-
4G	4B	4d	8gg
.	.	.	8ff
4C	4G	4c	8ee-
.	.	.	16dd
.	.	.	16ee-
[4c	4c	4g	16ff
.	.	.	16ee-
.	.	.	16dd
.	.	.	16cc
=56	=56	=56	=56
8c]	8f#	4a	8dd
16B-	16g	.	16ee
16A	16a	.	16ff#
8B-	8d	2g	8gg
8c	8e-	.	8cc
4d	8d	.	4b-
.	8c	.	.
4D	4d	8f#	8a
.	.	8dd	8ff#
=57	=57	=57	=57
4GG	4d	8b-	4gg
.	.	16a	.
.	.	16g	.
8r	8r	8dd	8r
8D	8d	8f#	8aa
4G	4d	4g	16bb-
.	.	.	16aa
.	.	.	16gg
.	.	.	16bb-
8r	8r	8r	16aa
.	.	.	16gg
8D	8d	8dd	16ff#
.	.	.	16aa
=58	=58	=58	=58
4GG	4d	8b-	4gg
.	.	16a	.
.	.	16g	.
8r	8r	8dd	8r
8D	8A	8f#	8dd
8GG	8B-	8g	4dd
8FF	8A	16a	.
.	.	16b-	.
8EE-	8G	8cc	8ee-
8CC	[8c	16dd	[8gg
.	.	16ee-	.
=59	=59	=59	=59
2DD	4c]	8a	4gg]
.	.	8ee-	.
.	8B-	8dd	4ff#
.	8A	8cc	.
4GG	8d	4b	8gg
.	16G	.	16b
.	16A	.	16cc
8r	8B	8r	8dd
8F	16c	8b	16ee-
.	16d	.	16ff
=60	=60	=60	=60
4E-	8e-	4cc	8gg
.	16c	.	16ee-
.	16d	.	16ff
8r	8e-	8r	16gg
.	.	.	16ff
8G	8B-	8g	16ee-
.	.	.	16dd
4A	8A	8e	4cc#
.	16G	16e	.
.	16A	16f#	.
8r	8B-	8g	8r
8AA	16A	16f#	8cc#
.	16G	16e	.
=61	=61	=61	=61
4D	8D	8A 8f#	8dd
.	8E	8B- 8g	8cc#
4r	8D	8A 8f#	8dd
.	8E	8B- 8g	8cc#
2DD	2D	16A 16f#	2dd
.	.	16G 16e	.
.	.	16A 16f#	.
.	.	16G 16e	.
.	.	4A 4f#	.
=62	=62	=62	=62
1r	1r	4g	1r
.	.	4f#	.
.	.	4g	.
.	.	4a	.
=63	=63	=63	=63
1r	1r	8b-	1r
.	.	8dd	.
.	.	4f#	.
.	.	4g	.
.	.	4a	.
=64	=64	=64	=64
1r	1r	4b-	1r
.	.	[4a	.
.	.	8a]	.
.	.	[8g	.
.	.	8g]	.
.	.	8f#	.
=65	=65	=65	=65
1r	1r	8g	2r
.	.	8e-	.
.	.	4dT	.
.	.	8c	4cc
.	.	8e-	.
.	.	8d	4b
.	.	8f	.
=66	=66	=66	=66
1r	1r	4e-	4cc
.	.	4B	4dd
.	.	4c	8ee-
.	.	.	8gg
.	.	4d	4b
=67	=67	=67	=67
1r	1r	8e-	4cc
.	.	8g	.
.	.	4B	4dd
.	.	4c	4ee-
.	.	4d	[4dd
=68	=68	=68	=68
1r	1r	4e-	8dd]
.	.	.	4cc
.	.	4d	.
.	.	.	8b
.	.	8e-	8cc
.	.	8d	8b-
.	.	8c	4at
.	.	8d	.
=69	=69	=69	=69
1r	1r	8B	8g
.	.	4c	16f
.	.	.	16e-
.	.	.	8f
.	.	[8B-	8g
.	.	8B-]	8c
.	.	16A-	16d
.	.	16G	16e-
.	.	8A-	8f
.	.	16G	16g
.	.	16F	16a-
=70	=70	=70	=70
1r	1r	8B	8d
.	.	8G	8a-
.	.	8A	8g
.	.	8B	8f
.	.	4c	8e-
.	.	.	8d
.	.	8B-	8e
.	.	8A	8f#
=71	=71	=71	=71
1r	4G	8B-	4g
.	.	4d	.
.	4F#	.	4e-
.	.	4c	.
.	4G	.	8d
.	.	8B-	4g
.	4A	4c	.
.	.	.	8f#
=72	=72	=72	=72
1r	8B-	8d	8g
.	8d	8g	8b-
.	4F#	[4a	8a
.	.	.	8cc
.	4G	8a]	4b-
.	.	4g	.
.	4A	.	4cc
.	.	[8f#	.
=73	=73	=73	=73
1r	4B-	8f#]	4dd
.	.	4g	.
.	[4A	.	4cc
.	.	[8f#	.
.	8A]	8f#]	4b-
.	4G	8d	.
.	.	4e-	8a
.	8F#	.	8cc
=74	=74	=74	=74
1r	4G	4.d	8b-
.	.	.	16a
.	.	.	16g
.	4D	.	4f#
.	.	8c	.
.	4E-	4B-	8g
.	.	.	8a
.	4D	4B	8g
.	.	.	8f
=75	=75	=75	=75
4C	8E-	4c	4e-
.	8F	.	.
4BB	8G	4d	8r
.	8F	.	8a-
4C	4E-	8e-	8g
.	.	8g	8cc
4D	4F	4B	8r
.	.	.	8f
=76	=76	=76	=76
8E-	4.G	4c	8.e-
8G	.	.	.
.	.	.	16f
4BB	.	4d	8g
.	8A-	.	8f
4C	4G	4e-	8g
.	.	.	4cc
4D	4F	4d	.
.	.	.	8b
=77	=77	=77	=77
4E-	4G	8c	8cc
.	.	8d	8b
4D	8A	8e-	8cc
.	8B	8f	8dd
4C	8c	4.g	8ee-
.	8B	.	8dd
4CC	8c	.	8ee-
.	8A	8f#	8cc
=78	=78	=78	=78
4GG	4B	2g	8dd
.	.	.	8cc
4EE-	2c	.	8dd
.	.	.	8ee-
4DD	.	4f	8ff
.	.	.	8ee-
4GG	4B	4g	8ff
.	.	.	8dd
=79	=79	=79	=79
4C	4c	4g	8ee-
.	.	.	8gg
[4c	4e-	4cc	8aa-
.	.	.	8gg
4c]	2d	4a	8ff#
.	.	.	8dd
4B	.	[4g	8gg
.	.	.	8ff
=80	=80	=80	=80
4c	4c	4g]	4ee-
4G	4B	4f	4dd
4C	4G	4e-	4cc
4r	4r	8r	4b
.	.	8g	.
=81	=81	=81	=81
1r	1r	16f	4cc
.	.	16e-T	.
.	.	16d	.
.	.	16c	.
.	.	8g	4dd
.	.	8B	.
.	.	4c	8ee-
.	.	.	8gg
.	.	8r	4b
.	.	8g	.
=82	=82	=82	=82
1r	1r	16f	4cc
.	.	16e-T	.
.	.	16d	.
.	.	16c	.
.	.	8g	4dd
.	.	8B	.
.	.	8c	4ee-
.	.	16d	.
.	.	16e-	.
.	.	8f	[4dd
.	.	16g	.
.	.	16a-	.
=83	=83	=83	=83
1r	1r	8d	8dd]
.	.	8a-	4cc
.	.	8g	.
.	.	8f	8b
.	.	8e-	8cc
.	.	8c	16dd
.	.	.	16ee-
.	.	[4cc	8ff
.	.	.	16gg
.	.	.	16aa-
=84	=84	=84	=84
1r	1r	4cc]	8dd
.	.	.	8aa-
.	.	4b	8gg
.	.	.	8ff
.	.	8cc	8ee-
.	.	4g	16cc
.	.	.	16b-
.	.	.	8a
.	.	8f#	8dd
=85	=85	=85	=85
1r	4r	4g	8b-
.	.	.	16cc
.	.	.	16b-
.	8r	4f#	8a
.	8d	.	8dd
.	16c	4g	4dd
.	16B-T	.	.
.	16A	.	.
.	16G	.	.
.	8d	4a	8ff#
.	8F#	.	8aa
=86	=86	=86	=86
1r	4G	8b-	4gg
.	.	8dd	.
.	8r	4f#	8r
.	8d	.	8a
.	16c	4g	8dd
.	16B-	.	.
.	16A	.	8gg
.	16G	.	.
.	8d	4a	8ff#
.	8F#	.	8aa
=87	=87	=87	=87
1r	8G	4b-	8gg
.	16A	.	8dd
.	16B-	.	.
.	8c	[4a	8ee-
.	16d	.	8cc
.	16e-	.	.
.	8A	8a]	8ff#
.	8e-	4g	8cc
.	8d	.	8b-
.	8c	8f#	8a
=88	=88	=88	=88
1r	8B-	4.g	8dd
.	8G	.	16ee-
.	.	.	16dd
.	4d	.	16cc
.	.	.	16b-
.	.	8f#	16a
.	.	.	16b-
.	4e-	4g	8g
.	.	.	8gg
.	4d	8a	4ff
.	.	8b	.
=89	=89	=89	=89
1r	4.c	4.g	16ee-
.	.	.	16dd
.	.	.	16ee-
.	.	.	16cc
.	.	.	8ff
.	8B	8a-	8dd
.	8c	8g	8ee-
.	8A-	4f	8cc
.	8F	.	8dd-
.	8G	16e-	8b
.	.	16d	.
=90	=90	=90	=90
1r	8A-	8c	4cc
.	8G	16d	.
.	.	16e-	.
.	8A-	8f	8r
.	8F	16g	8ff
.	.	[16a-	.
.	8G	16a-]	8b
.	.	16g	.
.	8c	16f	4cc
.	.	16e-	.
.	8F	16d	.
.	.	16e-	.
.	8G	16f	8b
.	.	16g	.
=91	=91	=91	=91
4C	4.G	8e-T	4cc
.	.	16d	.
.	.	16c	.
4BB	.	4d	8r
.	8G	.	8gg
4C	4G	8c	16ff
.	.	.	16ee-T
.	.	8g	16dd
.	.	.	16cc
4D	8r	8f	8gg
.	8F	16e-	8b
.	.	16d	.
=92	=92	=92	=92
8E-	4G	16c	4cc
.	.	16d	.
8G	.	16e-	.
.	.	16c	.
4BB	8r	8d	8r
.	8d	8g	8gg
4C	4c	8g	16ff
.	.	.	16ee-T
.	.	16f	16dd
.	.	16e-	16cc
4D	8r	8f	8gg
.	8F	8d	8b
=93	=93	=93	=93
4E-	4G	2c	8cc
.	.	.	16dd
.	.	.	16ee-
[4D	8F	.	8ff
.	8E-	.	16gg
.	.	.	16aa-
8D]	8F	8d	8b
4C	8E-	4e-	8aa-
.	8F	.	8gg
8BB	8G	8d	8ff
=94	=94	=94	=94
2.C	4G	4c	8ee-
.	.	.	8dd
.	8c	4g	8ee-
.	8e-	.	8cc
.	4.d	4a	8ff#
.	.	.	8dd
8BB-	.	8g	[4gg
8C	8e-	8a	.
=95	=95	=95	=95
4D	4d	4b-	4gg]
4DD	4c	4a	4ff#
4GG	4B-	4g	8gg
.	.	.	[8dd
8r	4A	4f#	8dd]
8D	.	.	8a
=96	=96	=96	=96
8BB-	8D	4g	8b-
16AA	4G	.	8gg
16GG	.	.	.
8D	.	4a	8a
8FF#	8F#	.	8aa
4GG	8D	8b-	4gg
.	8G	8dd	.
8r	16A	4f#	8r
.	16B-	.	.
8D	8c	.	8a
=97	=97	=97	=97
8BB-T	8d	4g	8b-
16AA	8B-	.	8gg
16GG	.	.	.
8D	8A	4a	8ff#
8FF#	8d	.	8aa
8GG	8B-	4b-	4dd
16AA	8d	.	.
16BB-	.	.	.
8C	[4e-	[4a	8gg
16D	.	.	[8cc
16E-	.	.	.
=98	=98	=98	=98
8FF#	8e-]	8a]	8cc]
8E-	8c	4g	8cc
8D	8d	.	8b-
8C	8e-	8f#	8a
8BB-	4.d	4.g	8dd
8GG	.	.	16ee-
.	.	.	16dd
4D	.	.	16cc
.	.	.	16b-
.	8c	8f#	16a
.	.	.	16b-
=99	=99	=99	=99
4E-	8B-	4g	8g
.	8B	.	8gg
4D	8c	8a	4ff
.	8d	8b	.
4C	4e-	[2g	8ee-
.	.	.	8cc
4GG	4d	.	16b
.	.	.	16gg
.	.	.	16dd
.	.	.	16ff
=100	=100	=100	=100
4CC	4c	4g]	16ee-
.	.	.	16gg
.	.	.	16cc
.	.	.	16ee-
4r	8r	4r	16b
.	.	.	16dd
.	8G	.	16g
.	.	.	16b
2r	16F	2r	4cc
.	16E-T	.	.
.	16D	.	.
.	16C	.	.
.	8G	.	16r
.	.	.	16gg
.	8BB	.	16dd
.	.	.	16ff
=101	=101	=101	=101
1r	4C	1r	16ee-
.	.	.	16gg
.	.	.	16cc
.	.	.	16ee-
.	8r	.	16b
.	.	.	16dd
.	8G	.	16g
.	.	.	16b
.	16F	.	8cc
.	16E-	.	.
.	16D	.	8ee-
.	16C	.	.
.	8G	.	16dd
.	.	.	16ee-
.	8BB	.	16ff
.	.	.	16dd
=102	=102	=102	=102
1r	8C	1r	16ee-
.	.	.	16dd
.	16D	.	16ee-
.	16E-	.	16cc
.	8F	.	16aa-
.	.	.	16gg
.	16G	.	16aa-
.	16A-	.	16ff
.	8D	.	16b
.	.	.	16ff
.	8A-	.	16dd
.	.	.	16ff
.	8G	.	16cc
.	.	.	16ee-
.	8F	.	16b
.	.	.	16dd
=103	=103	=103	=103
1r	8E-	1r	16cc
.	.	.	16ee-
.	8C	.	16a
.	.	.	16cc
.	8D	.	16f#
.	.	.	16a
.	8C	.	16b-
.	.	.	16cc
.	8BB-	.	8dd
.	8GG	.	16ee-
.	.	.	16dd
.	8D	.	16cc
.	.	.	16b-
.	8DD	.	16a
.	.	.	16b-
=104	=104	=104	=104
1r	4GG	2r	16g
.	.	.	16b-
.	.	.	16e
.	.	.	16g
.	16r	.	8f#
.	16D	.	.
.	16AA	.	8d
.	16C	.	.
.	16BB-	4r	8dd
.	16D	.	.
.	16GG	.	16cc
.	16BB-	.	16b-
.	16FF#	8r	4a
.	16AA	.	.
.	16DD	8d	.
.	16FF#	.	.
=105	=105	=105	=105
1r	4GG	8B-	8g
.	.	16A	8e
.	.	16G	.
.	16r	8d	8f#
.	16D	.	.
.	16AA	8F#	8d
.	16C	.	.
.	16BB-	4G	8d
.	16D	.	.
.	16GG	.	16c
.	16BB-	.	16B-
.	16FF#	8r	8A
.	16AA	.	.
.	16DD	8d	8a
.	16FF#	.	.
=106	=106	=106	=106
1r	8GG	8B-T	4g
.	8BB-	16A	.
.	.	16G	.
.	16AA	8d	8r
.	16BB-	.	.
.	16C	8F#	8e-
.	16AA	.	.
.	16BB-	8G	8d
.	16AA	.	.
.	16BB-	16A	4.g
.	16GG	16B-	.
.	16E-	8c	.
.	16D	.	.
.	16E-	16d	.
.	16C	16e-	.
=107	=107	=107	=107
1r	16AA	8A	4f#
.	16E-	.	.
.	16C	8e-	.
.	16E-	.	.
.	16AA	8d	8r
.	16C	.	.
.	16FF#	8c	[8a
.	16AA	.	.
.	8GG	8B-	8a]
.	8AA	8c	16g
.	.	.	16f#
.	8BB-	8d	8g
.	8GG	8e	16a
.	.	.	16b-
=108	=108	=108	=108
2r	8D	8f#	8a
.	16C	4g	8b-
.	16BB-	.	.
.	8AA	.	8cc
.	8D	8f#	16b-
.	.	.	16a
4r	8G	8g	8b-
.	8B-	8d	8g
16r	8c	8e	8a
16G	.	.	.
16D	8d	8f	8b
16F	.	.	.
=109	=109	=109	=109
16E-	4e-	4g	4cc
16G	.	.	.
16C	.	.	.
16E-	.	.	.
16BB	8r	8r	8r
16D	.	.	.
16GG	8d	8g	8gg
16BB	.	.	.
4C	4c	8g	16ff
.	.	.	16ee-T
.	.	16f	16dd
.	.	16e-	16cc
16r	4d	4f	8gg
16G	.	.	.
16D	.	.	8b
16F	.	.	.
=110	=110	=110	=110
16E-	4e-	4g	4cc
16G	.	.	.
16C	.	.	.
16E-	.	.	.
16BB	8r	8r	8r
16D	.	.	.
16GG	8d	8b	8gg
16BB	.	.	.
8C	4c	[2g	16ff
.	.	.	16ee-T
8E-	.	.	16dd
.	.	.	16cc
16BB	8d	.	8gg
16D	.	.	.
16GG	8f	.	8b
16BB	.	.	.
=111	=111	=111	=111
4EE-	4e-	4g]	8cc
.	.	.	16dd
.	.	.	16ee-
2C	4c	2a-	8ff
.	.	.	16gg
.	.	.	16aa-
.	4f	.	8dd
.	.	.	8aa-
4BB	4g	4dd	8gg
.	.	.	8ff
=112	=112	=112	=112
8C	8g	8cc	8ee-
8D	8f	8f	8b
8E-	8e-	8g	8cc
8F	8d	8a-	8dd
4G	8c	4g	8ee-
.	8B	.	8dd
8r	8r	8r	[4gg
8BB-	8d	8g	.
=113	=113	=113	=113
4C	4e-	4a	4gg]
4D	4d	16r	4ff#
.	.	16dd	.
.	.	16a	.
.	.	16cc	.
4GG	4d	16b-	4gg
.	.	16dd	.
.	.	16g	.
.	.	16b-	.
8r	8r	16f#	8r
.	.	16a	.
8D	8A	16d	8dd
.	.	16f#	.
=114	=114	=114	=114
8BB-	8d	4g	8dd
16AA	16c	.	8gg
16GG	16B-	.	.
8D	8A	16r	8ff#
.	.	16dd	.
8FF#	8d	16a	8aa
.	.	16cc	.
4GG	4d	16b-	4gg
.	.	16dd	.
.	.	16g	.
.	.	16b-	.
8r	8r	16f#	8r
.	.	16a	.
8D	8A	16d	8ff#
.	.	16f#	.
=115	=115	=115	=115
8BB-	8d	8g	8dd
16AA	8c#	8b-	8gg
16GG	.	.	.
8D	8d	16a	16ff#
.	.	16b-	16gg
8FF#	8e-	16cc	8aa
.	.	16a	.
8GG	8d	16b-	[2gg
.	.	16a	.
16AA	8B-	16b-	.
16BB-	.	16g	.
8C	8G	16ee-	.
.	.	16dd	.
16D	8c	16cc	.
16E-	.	16b-	.
=116	=116	=116	=116
8AA	8e-	8cc	8gg]
8E-	8c	8a	8ff#
8D	8d	8b-	8gg
[8C	8e-	8cc	8aa
8C]	8A	4f#	8dd
8AA	8e-	.	8cc
8BB-	8d	8g	8dd
8C	8c	8a	8ee-
=117	=117	=117	=117
2D	4B-	4g	8dd
.	.	.	4gg
.	4c	4a	.
.	.	.	8ff#
4E-	8B	4g	8gg
.	4c	.	8ee-
4D	.	4a-	8ff
.	8B	.	8dd
=118	=118	=118	=118
8C	8c	8g	8ee-
8AA-	4f	4a-	8cc
8FF	.	.	8dd-
8GG	16e-	16g	8b
.	16d	16f	.
8AA-	8c	8e-	8.cc
8FF	8A-	8f	.
.	.	.	16dd
4GG	16G	4d	8.bT
.	16G	.	.
.	16D	.	.
.	16F	.	16cc
=119	=119	=119	=119
4CC	16E-	4c	4cc
.	16G	.	.
.	16C	.	.
.	16E-	.	.
4r	16BB	8r	4r
.	16D	.	.
.	16GG	8g	.
.	16BB	.	.
2r	4C	16f	2r
.	.	16e-T	.
.	.	16d	.
.	.	16c	.
.	16r	8g	.
.	16G	.	.
.	16D	8B	.
.	16F	.	.
=120	=120	=120	=120
1r	16E-	4c	1r
.	16G	.	.
.	16C	.	.
.	16E-	.	.
.	16BB	8r	.
.	16D	.	.
.	16GG	8g	.
.	16BB	.	.
.	8C	16f	.
.	.	16e-	.
.	8E-	16d	.
.	.	16c	.
.	16D	8g	.
.	16E-	.	.
.	16F	8B	.
.	16D	.	.
=121	=121	=121	=121
1r	16E-	8c	1r
.	16D	.	.
.	16E-	16d	.
.	16C	16e-	.
.	16A-	8f	.
.	16G	.	.
.	16A-	16g	.
.	16F	16a-	.
.	16B	8d	.
.	16f	.	.
.	16d	8a-	.
.	16f	.	.
.	16B	8g	.
.	16d	.	.
.	16G	8f	.
.	16B	.	.
=122	=122	=122	=122
1r	8c	16e-	1r
.	.	16d	.
.	8F#	16e-	.
.	.	16c	.
.	8B-	16d	.
.	.	16c	.
.	8E	16d	.
.	.	16B-	.
.	8A	16c	.
.	.	16B-	.
.	8D	16c	.
.	.	16A	.
.	8G	16B-	.
.	.	16A	.
.	8C	16B-	.
.	.	16G	.
=123	=123	=123	=123
1r	8C	16F#	1r
.	.	16e-	.
.	16BB	16d	.
.	16AA	16c	.
.	8GG	16B-	.
.	.	16d	.
.	8C	16e-	.
.	.	16c	.
.	8D	16f#	.
.	.	16d	.
.	8E-	16g	.
.	.	16cc	.
.	8D	8b-	.
.	8DD	8at	.
=124	=124	=124	=124
1r	8GG	8g	4r
.	8C	16f#	.
.	.	16e	.
.	4D	8f#	16r
.	.	.	16dd
.	.	8d	16a
.	.	.	16cc
.	4r	8g	16b-
.	.	.	16dd
.	.	8e	16g
.	.	.	16b-
.	8r	8d	16f#
.	.	.	16a
.	8D	8A	16d
.	.	.	16f#
=125	=125	=125	=125
1r	8BB-	8d	4g
.	16AA	16c	.
.	16GG	16B-	.
.	8D	8A	16r
.	.	.	16dd
.	8FF#	8e-	16a
.	.	.	16cc
.	4GG	8d	16b-
.	.	.	16dd
.	.	8c#	16g
.	.	.	16b-
.	8r	8d	16f#
.	.	.	16a
.	8D	8A	16d
.	.	.	16f#
=126	=126	=126	=126
1r	8BB-	16d	8g
.	.	16c#	.
.	16AA	16d	8b-
.	16GG	16e	.
.	8D	4f#	16a
.	.	.	16b-
.	8FF#	.	16cc
.	.	.	16a
.	8GG	8d	16b-
.	.	.	16a
.	16AA	[8g	16b-
.	16BB-	.	16g
.	8C	8g]	16ee-
.	.	.	16dd
.	16D	[8e-	16ee-
.	16E-	.	16cc
=127	=127	=127	=127
1r	8AA	8e-]	16f#
.	.	.	16cc
.	8E-	8c	16a
.	.	.	16cc
.	8D	8d	16g
.	.	.	16b-
.	8C	8e-	16f#
.	.	.	16a
.	8BB-	8d	16g
.	.	.	16a
.	8GG	8e	16b-
.	.	.	16g
.	8D	8f#	8a
.	16C	[8g	8b-
.	16BB-	.	.
=128	=128	=128	=128
1r	8AA	8g]	8cc
.	8D	8f#	16b-
.	.	.	16a
.	8GG	8.g	16b-
.	.	.	16a
.	8C#	.	8b-
.	.	16e	.
.	8D	16f#	8.a
.	.	16e	.
.	8B-	16f#	.
.	.	16g	16b-
.	8A	8g	8cc
.	8d	8f#	16b-
.	.	.	16a
=129	=129	=129	=129
1r	4.G	8g	16b-
.	.	.	16dd
.	.	8e-	16ee-
.	.	.	16dd
.	.	8e	16cc#
.	.	.	16a
.	8F#	[8d	16dd
.	.	.	16cc
.	8G	16d]	8b-
.	.	8g	.
.	8D	.	8a-
.	.	[16f	.
.	8E-	16f]	8g
.	.	8e-	.
.	8BB	.	8f
.	.	[16d	.
=130	=130	=130	=130
2r	8C	16d]	8e-
.	.	8c	.
.	8E-	.	[8cc
.	.	16g	.
.	8F	8a-	16cc]
.	.	.	8dd
.	8G	[8g	.
.	.	.	16b
4r	8E-	8g]	8cc
.	8A	8f#	8ee-
16r	8B	4g	8dd
16G	.	.	.
16D	8d	.	8b
16F	.	.	.
=131	=131	=131	=131
16E-	4e-	4g	4cc
16G	.	.	.
16C	.	.	.
16E-	.	.	.
16BB	8r	8r	8r
16D	.	.	.
16GG	8d	8g	8gg
16BB	.	.	.
8C	4c	4g	16ff
.	.	.	16ee-
8E-	.	.	16dd
.	.	.	16cc
16BB	8d	4g	8gg
16D	.	.	.
16GG	8f	.	8b
16BB	.	.	.
=132	=132	=132	=132
4EE-	4e-	4g	16cc
.	.	.	16dd
.	.	.	16ee-
.	.	.	16cc
4DD	8A	16r	4ff#
.	.	16dd	.
.	8d	16a	.
.	.	16cc	.
4GG	4d	16b-	4gg
.	.	16dd	.
.	.	16g	.
.	.	16b-	.
8r	8r	16f#	8r
.	.	16a	.
8D	8A	16d	8dd
.	.	16f#	.
=133	=133	=133	=133
8BB-	8d	8g	8dd
16AA	16c	[8dd	8gg
16GG	16B-	.	.
8D	8A	16dd]	8ff#
.	.	16dd	.
8FF#	8d	16a	8aa
.	.	16cc	.
4GG	4d	16b-	4gg
.	.	16dd	.
.	.	16g	.
.	.	16b-	.
8r	8r	16f#	8r
.	.	16a	.
8D	8A	16d	8ff#
.	.	16f#	.
=134	=134	=134	=134
8BB-T	8d	8g	8dd
16AA	8c#	8b-	8gg
16GG	.	.	.
8D	8d	16a	8.ff#
.	.	16b-	.
8FF#	8e-	8cc	.
.	.	.	16aa
8GG	8d	16b-	[2gg
.	.	16a	.
16AA	8B-	16b-	.
16BB-	.	16g	.
8C	8G	16ee-	.
.	.	16dd	.
16D	8c	16cc	.
16E-	.	16b-	.
=135	=135	=135	=135
8AA	8e-	8cc	8gg]
8E-	8c	8a	8ff#
8D	8d	8b-	8gg
[8C	8e-	8cc	8aa
8C]	8A	4f#	8dd
8AA	8e-	.	8cc
8BB-	8d	8g	8dd
8C	8c	8a	8ee-
=136	=136	=136	=136
2D	4B-	4g	8dd
.	.	.	4gg
.	4c	4a	.
.	.	.	8ff#
4E-	8B	4g	8gg
.	4c	.	8ee-
4D	.	4a-	8ff
.	8B	.	8dd
=137	=137	=137	=137
8C	8c	8g	8ee-
8AA-	4f	4a-	8cc
8FF	.	.	8dd-
8GG	16e-	16g	8b
.	16d	16f	.
8AA-	8c	8e-	8.cc
8FF	8A-	8f	.
.	.	.	16dd
4GG	4G	4d	8.bT
.	.	.	16cc
=138	=138	=138	=138
4CC	4E-	4c	4cc
4r	4r	4B	8r
.	.	.	8gg
2r	2r	4c	16ff
.	.	.	16ee-
.	.	.	16dd
.	.	.	16cc
.	.	4d	8gg
.	.	.	8b
=139	=139	=139	=139
1r	1r	8e-	4cc
.	.	8g	.
.	.	4B	8r
.	.	.	8gg
.	.	4c	16ff
.	.	.	16ee-
.	.	.	16dd
.	.	.	16cc
.	.	4d	8gg
.	.	.	8b
=140	=140	=140	=140
1r	1r	4e-	8cc
.	.	.	16dd
.	.	.	16ee-
.	.	[4d	8ff
.	.	.	16gg
.	.	.	16aa-
.	.	8d]	8dd
.	.	4c	8aa-
.	.	.	8gg
.	.	8B	8ff
=141	=141	=141	=141
1r	1r	8c	8ee-
.	.	8d	8dd
.	.	[4e-	8cc
.	.	.	8b-
.	.	8e-]	8a
.	.	16d	8ff#
.	.	16c	.
.	.	8B-	8gg
.	.	8c	8cc
=142	=142	=142	=142
2r	2r	8d	4b-
.	.	4g	.
.	.	.	4a
.	.	8f#	.
4GG	4r	4g	8b-
.	.	.	8cc
4FF#	8r	8r	[4dd
.	8d	8a	.
=143	=143	=143	=143
4GG	8B-	8g	8dd]
.	16A	8b-	8gg
.	16G	.	.
4AA	8d	8.cc	8.ff#
.	8F#	.	.
.	.	16cc	16aa
8BB-	4G	8b-	4gg
8D	.	16a	.
.	.	16g	.
4FF#	8r	8a	8r
.	8d	[8dd	8aa
=144	=144	=144	=144
4GG	8B-	8dd]	4gg
.	16A	16cc	.
.	16G	16b-	.
4AA	8d	16a	8.ff#
.	.	16b-	.
.	8F#	8cc	.
.	.	.	16aa
4BB-	8G	8dd	2gg
.	16A	16ee-	.
.	16B-	16dd	.
[4AA	8c	8cc	.
.	16d	8b-	.
.	16e-	.	.
=145	=145	=145	=145
8AA]	8A	4cc	8ff#
4GG	8e-	.	4gg
.	8d	8b-	.
8FF#	8c	8a	[8aa
8GG	8d	8b-	8aa]
8AA	8c	8cc	8ff#
8BB-	8B-	8dd	8gg
8C	8e-	8cc	8aa
=146	=146	=146	=146
4D	[2d	4b-	8dd
.	.	.	[8gg
4BB	.	4a	8gg]
.	.	.	[8ff
4C	8d]	4g	8ff]
.	4c	.	4ee-
4GG	.	4f	.
.	8B	.	8dd
=147	=147	=147	=147
4CC	8G	4e-	4cc
.	8F	.	.
4r	8E-	8r	4b
.	8D	8g	.
2r	8C	16f	4cc
.	.	16e-	.
.	8c	16d	.
.	.	16c	.
.	8B	8g	4dd
.	8G	8B	.
=148	=148	=148	=148
1r	8E-	4c	8ee-
.	8C	.	8gg
.	16G	8r	4b
.	16F	.	.
.	16E-	8g	.
.	16D	.	.
.	8C	16f	4cc
.	.	16e-	.
.	8E-	16d	.
.	.	16c	.
.	8B	8g	4dd
.	8G	8B	.
=149	=149	=149	=149
1r	8c	8c	4ee-
.	8G	16d	.
.	.	16e-	.
.	8A-	8f	[4dd
.	8F	16g	.
.	.	16a-	.
.	8B	8d	8dd]
.	8c	8a-	4cc
.	8F	8g	.
.	8G	8f	8b
=150	=150	=150	=150
2r	8C	8e-	4.cc
.	8c	8d	.
.	8B-	8e	.
.	8A	8f#	8dd
4r	8G	4g	8b-
.	8B-	.	8dd
8r	8d	4f#	8a
8C	8c	.	8ee-
=151	=151	=151	=151
8BB-	8d	4g	8dd
16AA	16c	.	8gg
16GG	16B-	.	.
8D	8c	4a	8ff#
8FF#	8d	.	8aa
4GG	8B-T	8b-	4gg
.	16A	8dd	.
.	16G	.	.
8r	8d	4f#	8r
8D	8A	.	8dd
=152	=152	=152	=152
8BB-T	8B-	4g	8dd
16AA	8d	.	16cc
16GG	.	.	16b-
8D	8F#	4a	8cc
8FF#	8A	.	8dd
8GG	8G	8b-	8dd
16AA	8d	8b-	8gg
16BB-	.	.	.
8C	4c	[4a	8ee-
16D	.	.	8cc
16E-	.	.	.
=153	=153	=153	=153
8FF#	8e-	8a]	8aa
8E-	8c	4g	8cc
8D	8d	.	8b-
8C	8e-	8f#	8a
8BB-	4.d	4.g	8dd
8GG	.	.	16ee-
.	.	.	16dd
4D	.	.	16cc
.	.	.	16b-
.	8c	8f#	16a
.	.	.	16b-
=154	=154	=154	=154
4E-	8B	4.g	8g
.	8G	.	8b
4A-	8A-	.	[4cc
.	8c	8e-	.
4D	8d	4.f	8cc]
.	8c	.	8cc
4G	4d	.	4b
.	.	8g	.
=155	=155	=155	=155
4c	4c	4e-	8cc
.	.	.	8ee-
4F	4A-	8f	8dd-
.	.	8d	8b
4F#	4A	8e-	4.cc
.	.	8c	.
4G	8r	4d	.
.	8G	.	8b
=156	=156	=156	=156
[1C	16F	4c	4cc
.	16E-T	.	.
.	16D	.	.
.	16C	.	.
.	8G	4r	8r
.	8BB	.	8gg
.	4C	2r	16ff
.	.	.	16ee-
.	.	.	16dd
.	.	.	16cc
.	8r	.	8gg
.	8G	.	8b
=157	=157	=157	=157
1C_	16F	1r	4cc
.	16E-	.	.
.	16D	.	.
.	16C	.	.
.	8G	.	8r
.	8E	.	8ccc
.	4F	.	16bb-
.	.	.	16aa-
.	.	.	16gg
.	.	.	16ff
.	8r	.	8ccc
.	8c	.	8ee
=158	=158	=158	=158
1C_	16B-	2r	4ff
.	16A-	.	.
.	16G	.	.
.	16F	.	.
.	8c	.	8r
.	8E	.	8ccc
.	4F	4r	8aa-
.	.	.	16ff
.	.	.	16gg
.	8r	8r	8aa-
.	8A-	8F 8d	8b
=159	=159	=159	=159
1C]	1G	1c 1e	1cc
==	==	==	==
*-	*-	*-	*-
!!!ENC: Peter van Kranenburg (peter@musical-style-recognition.net)
!!!END: 2006-11-9
